!!!OTL: Will Ye Go To Flanders
!!!id: HA013
**kern
*clefG2
*k[f#c#g#d#]
*E:
*M4/4
{8.b
16cc#
8b
8g#
8.cc#
16dd#
8ee}
{8cc#
=2
16b
8.g#
8.f#
16g#
4e}
8r
{8b
=3
8.ee
16dd#
8ee
8ff#
8ee
8dd#
8cc#}
{8b
=4
8.cc#
16b
8ee
8a#
4.b}
{8b
=5
8.ee
16dd#
8ee
8ff#
8ee
8dd#}
{8cc#
8b
=6
8cc#
8b
8a
8g#
4cc#}
{8cc#
8dd#
=7
8.ee
16dd#
8cc#
8b}
{8.cc#
16dd#
8ee
8cc#
=8
16b
8.g#
8.f#
16g#
4e}
4r
==
*-
!!!minrhy: 16
!!!meter: 4/4
!!!cut: Will Ye Go To Flanders
!!!key: HA013  16 Es 4/4
!!!bem: Melismen
!!!fog: a--b--c--d--cv-e--f--b--
!! Haydn: Volksliedbearbeitungen, Bd1
